storage/app/icons/phosphoricons/bold/laptop-bold.svg

<svg xmlns="http://www.w3.org/2000/svg" fill="currentColor" viewBox="0 0 256 256"><path d="M232 156h-4V72a28 28 0 0 0-28-28H56a28 28 0 0 0-28 28v84h-4a12 12 0 0 0-12 12v24a28 28 0 0 0 28 28h176a28 28 0 0 0 28-28v-24a12 12 0 0 0-12-12M52 72a4 4 0 0 1 4-4h144a4 4 0 0 1 4 4v84H52Zm168 120a4 4 0 0 1-4 4H40a4 4 0 0 1-4-4v-12h184Zm-64-96a12 12 0 0 1-12 12h-32a12 12 0 0 1 0-24h32a12 12 0 0 1 12 12"/></svg>

<svg xmlns="http://www.w3.org/2000/svg" viewBox="0 0 256 256" fill="currentColor"><path d="M232,156h-4V72a28,28,0,0,0-28-28H56A28,28,0,0,0,28,72v84H24a12,12,0,0,0-12,12v24a28,28,0,0,0,28,28H216a28,28,0,0,0,28-28V168A12,12,0,0,0,232,156ZM52,72a4,4,0,0,1,4-4H200a4,4,0,0,1,4,4v84H52ZM220,192a4,4,0,0,1-4,4H40a4,4,0,0,1-4-4V180H220ZM156,96a12,12,0,0,1-12,12H112a12,12,0,0,1,0-24h32A12,12,0,0,1,156,96Z"/></svg>
